X: 2
T:Mrs. Fiona Gilbert's farewell to Adam Ferguson
M:6/8
L:1/8
C:Mits Ota
K:Em
E2 F/2G/2 A2 B | EGE BAG | D2 E/2F/2 G2 A | DFD AGF |
E2 F/2G/2 A2 B | EGE BAG | FDF GAD | E3 Ez2 | E3 EzF ||
G2 A/2B/2 c2d | Gdc BAG | A2 d F2 d | A2 d FAD |
EGE BAB | EGE BGB | FB2 B2G| FB2 B2F |
G2 A/2B/2 c2d | Gdc BAG | A2 d F2 d | A2 d FAD|
 EGE BAG | FGF AGF | B,EE F2D |E3 z3 ||